src/images/svg/symbols/btc-eth.svg

<svg width="32" height="32" viewBox="0 0 32 32" fill="none" xmlns="http://www.w3.org/2000/svg">
<path d="M2 11C2 6.02944 6.02944 2 11 2C15.9706 2 20 6.02944 20 11C20 15.9706 15.9706 20 11 20C6.02944 20 2 15.9706 2 11Z" fill="#F7931A"/>
<path d="M15.0439 9.88625C15.2205 8.70725 14.3222 8.07331 13.0948 7.65031L13.4931 6.05281L12.5211 5.81094L12.1329 7.36625C11.8776 7.30212 11.6154 7.2425 11.3539 7.18287L11.7448 5.61744L10.7728 5.375L10.3746 6.97194C10.1631 6.92356 9.95494 6.87631 9.75357 6.82569L9.75469 6.82062L8.41369 6.48594L8.15494 7.52431C8.15494 7.52431 8.87663 7.68969 8.86144 7.69981C9.25519 7.79825 9.32607 8.05869 9.31425 8.26569L8.86088 10.0854C8.88788 10.0921 8.92275 10.1023 8.96213 10.1174L8.85919 10.0921L8.22357 12.6414C8.17519 12.7606 8.05313 12.9401 7.7775 12.872C7.78763 12.8861 7.071 12.6959 7.071 12.6959L6.58838 13.8086L7.854 14.1241C8.08913 14.1832 8.31975 14.2451 8.54644 14.303L8.14425 15.9185L9.11569 16.1604L9.51394 14.5629C9.77944 14.6343 10.0371 14.7007 10.2891 14.7637L9.89194 16.3544L10.8639 16.5963L11.2661 14.9842C12.9244 15.2981 14.1709 15.1715 14.6957 13.6719C15.1187 12.4648 14.6749 11.7678 13.8024 11.3139C14.4381 11.1676 14.9162 10.7497 15.0439 9.88625ZM12.822 13.0014C12.5222 14.2091 10.4888 13.556 9.8295 13.3923L10.3639 11.252C11.0231 11.4168 13.1364 11.7425 12.822 13.0014ZM13.1229 9.86881C12.849 10.9674 11.157 10.4088 10.6086 10.2721L11.0923 8.3315C11.6408 8.46819 13.4087 8.723 13.1229 9.86881Z" fill="white"/>
<path d="M12 21C12 16.0294 16.0294 12 21 12C25.9706 12 30 16.0294 30 21C30 25.9706 25.9706 30 21 30C16.0294 30 12 25.9706 12 21Z" fill="#EBF0F1"/>
<path d="M20.999 14.25V23.5679L25.2161 21.1238L20.999 14.25Z" fill="#12100B" fill-opacity="0.8"/>
<path d="M20.9989 14.25L16.7812 21.1238L20.9989 23.5706V14.25Z" fill="#12100B" fill-opacity="0.45"/>
<path d="M20.999 24.3572V27.7474L25.2189 21.9092L20.999 24.3572Z" fill="#12100B" fill-opacity="0.8"/>
<path d="M20.9989 27.7474V24.3566L16.7812 21.9092L20.9989 27.7474Z" fill="#12100B" fill-opacity="0.45"/>
<path d="M20.999 23.572L25.2161 21.1235L20.999 19.2402V23.572Z" fill="#12100B" fill-opacity="0.6"/>
<path d="M16.7812 21.1235L20.9989 23.572V19.2402L16.7812 21.1235Z" fill="#12100B" fill-opacity="0.6"/>
</svg>

<svg width="32" height="32" fill="none" xmlns="http://www.w3.org/2000/svg"><path d="M2 11a9 9 0 1 1 18 0 9 9 0 0 1-18 0Z" fill="#F7931A"/><path d="M15.044 9.886c.176-1.179-.722-1.813-1.95-2.236l.4-1.597-.973-.242-.388 1.555c-.255-.064-.518-.123-.78-.183l.392-1.566-.972-.242-.398 1.597c-.212-.048-.42-.096-.621-.146V6.82l-1.34-.335-.26 1.038s.723.166.707.176c.394.098.465.359.453.566l-.453 1.82a.87.87 0 0 1 .101.031l-.103-.025-.635 2.55c-.049.119-.17.298-.447.23.01.014-.706-.176-.706-.176l-.483 1.113 1.266.315.692.179-.402 1.615.972.242.398-1.597c.265.071.523.138.775.2l-.397 1.591.972.242.402-1.612c1.658.314 2.905.188 3.43-1.312.423-1.207-.021-1.904-.894-2.358.636-.146 1.114-.564 1.242-1.428Zm-2.222 3.115c-.3 1.208-2.333.555-2.992.391l.534-2.14c.66.165 2.772.49 2.458 1.75Zm.3-3.132c-.273 1.098-1.965.54-2.513.403l.483-1.94c.549.136 2.317.391 2.03 1.537Z" fill="#fff"/><path d="M12 21a9 9 0 1 1 18 0 9 9 0 0 1-18 0Z" fill="#EBF0F1"/><path d="M20.999 14.25v9.318l4.217-2.444L21 14.25Z" fill="#12100B" fill-opacity=".8"/><path d="m20.999 14.25-4.218 6.874L21 23.57V14.25Z" fill="#12100B" fill-opacity=".45"/><path d="M20.999 24.357v3.39l4.22-5.838-4.22 2.448Z" fill="#12100B" fill-opacity=".8"/><path d="M20.999 27.747v-3.39l-4.218-2.448L21 27.747Z" fill="#12100B" fill-opacity=".45"/><path d="m20.999 23.572 4.217-2.448L21 19.24v4.332Z" fill="#12100B" fill-opacity=".6"/><path d="M16.781 21.123 21 23.572V19.24l-4.218 1.884Z" fill="#12100B" fill-opacity=".6"/></svg>
